storage/app/icons/phosphoricons/light/faders-horizontal-light.svg

<svg xmlns="http://www.w3.org/2000/svg" fill="currentColor" viewBox="0 0 256 256"><path d="M178 80a6 6 0 0 1 6-6h32a6 6 0 0 1 0 12h-32a6 6 0 0 1-6-6M40 86h106v18a6 6 0 0 0 12 0V56a6 6 0 0 0-12 0v18H40a6 6 0 0 0 0 12m176 84h-96a6 6 0 0 0 0 12h96a6 6 0 0 0 0-12M88 146a6 6 0 0 0-6 6v18H40a6 6 0 0 0 0 12h42v18a6 6 0 0 0 12 0v-48a6 6 0 0 0-6-6"/></svg>

<svg xmlns="http://www.w3.org/2000/svg" viewBox="0 0 256 256" fill="currentColor"><path d="M178,80a6,6,0,0,1,6-6h32a6,6,0,0,1,0,12H184A6,6,0,0,1,178,80ZM40,86H146v18a6,6,0,0,0,12,0V56a6,6,0,0,0-12,0V74H40a6,6,0,0,0,0,12Zm176,84H120a6,6,0,0,0,0,12h96a6,6,0,0,0,0-12ZM88,146a6,6,0,0,0-6,6v18H40a6,6,0,0,0,0,12H82v18a6,6,0,0,0,12,0V152A6,6,0,0,0,88,146Z"/></svg>
